assets/images/vector/icons/bolt.svg

<svg fill="none" height="60" viewBox="0 0 46 60" width="46" xmlns="http://www.w3.org/2000/svg"><path d="m21.4037 56.9867 18.8134-28.57c.73-1.1067-.0667-2.5833-1.3933-2.5833h-16.0734l2.8733-22.25671c.1134-.87667-1.0366-1.30333-1.5233-.56333l-18.81332 28.57004c-.73 1.1066.06667 2.5833 1.39334 2.5833h16.07328l-2.8733 22.2567c-.1133.8766 1.0367 1.3033 1.5233.5633z" stroke="#111" stroke-linecap="round" stroke-linejoin="round" stroke-width="10"/></svg>

<svg width="46" height="60" viewBox="0 0 46 60" fill="none" xmlns="http://www.w3.org/2000/svg">
<path d="M21.4037 56.9867L40.2171 28.4167C40.9471 27.31 40.1504 25.8334 38.8238 25.8334H22.7504L25.6237 3.57669C25.7371 2.70002 24.5871 2.27336 24.1004 3.01336L5.28708 31.5834C4.55708 32.69 5.35375 34.1667 6.68042 34.1667H22.7537L19.8804 56.4234C19.7671 57.3 20.9171 57.7267 21.4037 56.9867Z" stroke="#111111" stroke-width="10" stroke-linecap="round" stroke-linejoin="round"/>
</svg>
